X:1
T:RVW2/1/33 O May He Never Prosper-0
T:RVW2/1/33 O May He Never Prosper-0
T:Tune very doubtful Sung by a gipsy at Hooton Roberts Sept. 1907 (2 of 3)
T:Transcribed by Simon Furey and Lewis Jones
C:Transcribed by Simon Furey and Lewis Jones
L:1/8
Q:1/4=100
M:4/4
K:F
V:1 treble 
V:1
"^(editorial suggestion)" EF | G2 B2 G2 C2 | G6 GF |[M:5/4] C2 A,2 A,2 C2 CD |[M:4/4] C6 GA | %5
[M:5/4] B2 c2 G2 C2 A,C |[M:4/4] Bd c4 BA | G2 C2 EFGE | F6 GA | B2 D2 C2 B,C | Bd c4 BA | %11
 G2 C2 EFGE | F6 BA |[M:5/4] G2 A>G FA G2 C2 |[M:4/4] G3 F G2 C2 | B,3 A, B,2 C2 | C6 |] %17

